X: 40299
T: Tolka, The
R: polka
M: 2/4
K: Adorian
|:"Am"A>B "C"cg|"G"de "Am"cA|"G"B/c/B/A/ "G"Gd|"Am"AB "Em"GE|
"Am"A>B "C"cg|"G"de "Am"cA|"G"B/c/B/A/ "G"Gd|1 "G"BA "Am"e/d/c:|2 "G"BA "Am"Az||
|:"G"d>e "D"fa|"G"ga "D"fd|"C"g/e/d/c/ "G"Bd/c/|"G"B/A/G "G"B/A/G/B/|
"Am"A>B "C"cg|"G"de "Am"cA|"G"B/c/B/A/ "G"Gd|"G"BA "Am"Az:|
|:"Am"e>"G"f2/"G"g2/ f|"G"d e>"Em"f2/g2/|"D"fd "D"f/g/f/e/|"G"dc "G"B(d|
d) c/B/ "C"cg|"G"de "Am"cA|"G"B/c/B/A/ "G"Gd|1 "G"BA "Am"Az:|2 "G"BA "Am"e/d/c||

